X:1
T:Shea sude Sheas an rode a Dima Shee
M:6/4
L:1/8
R:Air
B:Neal – Collection of the Most Celebrated Irish Tunes (1724, p. 10)
K:Bb
Bc|d4e2 c4d2|B4B2 c2A2F2|B4d2 A4c2|G4G2 A2F2D2|
B4c2 A4d2|G4G2 A2c2c2|d4f2 Tc4A2|G4A2 F2D2DD2 {BA}|
d2D2d2 Tc4f2|TB4f2 c2A2F2|BABdcd A4d2|G4G2 A2F2D2|
BABdcd A3 dcd|G4G2 A2c2d2|dcd=efe ^c4A2|G4A2 F2D2D2|
B4f2 A4f2|G4FD F2D2D2|d2d2f2 c4A2|1 G4A2 F2D2:|2 G4 A2 F2D2-D2:|]

